22x22/apps/navit.svg

<svg xmlns="http://www.w3.org/2000/svg" width="22" height="22" version="1"><path style="fill:#4f4f4f" d="M19 20V2c0-.554-.446-1-1-1H4c-.554 0-1 .446-1 1v18c0 .554.446 1 1 1h14c.554 0 1-.446 1-1z"/><path style="opacity:.2" d="M10 2.5v4h2v-4zm0 7v4h2v-4zm0 7v4h2v-4z"/><path style="fill:#f4f4f7" d="M10 2v4h2V2zm0 7v4h2V9zm0 7v4h2v-4z"/><path style="opacity:.1;fill:#f4f4f7" d="M4 1c-.554 0-1 .446-1 1v.5c0-.554.446-1 1-1h14c.554 0 1 .446 1 1V2c0-.554-.446-1-1-1z"/><path style="opacity:.2" d="M3 20v.5c0 .554.446 1 1 1h14c.554 0 1-.446 1-1V20c0 .554-.446 1-1 1H4c-.554 0-1-.446-1-1z"/><circle style="fill:#3f8ce6" cx="16.5" cy="16.5" r="5.5"/><path style="fill:#f4f4f7" d="M16 12v1.041A3.5 3.5 0 0 0 13.04 16H12v1h1.041A3.5 3.5 0 0 0 16 19.96V21h1v-1.041A3.5 3.5 0 0 0 19.96 17H21v-1h-1.041A3.5 3.5 0 0 0 17 13.04V12h-1zm.5 3a1.5 1.5 0 0 1 1.5 1.5 1.5 1.5 0 0 1-1.5 1.5 1.5 1.5 0 0 1-1.5-1.5 1.5 1.5 0 0 1 1.5-1.5z"/></svg>

<svg xmlns="http://www.w3.org/2000/svg" width="22" height="22" version="1">
 <path style="fill:#4f4f4f" d="M 19,20 V 2 C 19,1.446 18.554,1 18,1 H 4 C 3.446,1 3,1.446 3,2 v 18 c 0,0.554 0.446,1 1,1 h 14 c 0.554,0 1,-0.446 1,-1 z"/>
 <path style="opacity:0.2" d="m 10,2.5 v 4 h 2 v -4 z m 0,7 v 4 h 2 v -4 z m 0,7 v 4 h 2 v -4 z"/>
 <path style="fill:#f4f4f7" d="m 10,2 v 4 h 2 V 2 Z m 0,7 v 4 h 2 V 9 Z m 0,7 v 4 h 2 v -4 z"/>
 <path style="opacity:0.1;fill:#f4f4f7" d="M 4,1 C 3.446,1 3,1.446 3,2 v 0.5 c 0,-0.554 0.446,-1 1,-1 h 14 c 0.554,0 1,0.446 1,1 V 2 C 19,1.446 18.554,1 18,1 Z"/>
 <path style="opacity:0.2" d="m 3,20 v 0.5 c 0,0.554 0.446,1 1,1 h 14 c 0.554,0 1,-0.446 1,-1 V 20 c 0,0.554 -0.446,1 -1,1 H 4 C 3.446,21 3,20.554 3,20 Z"/>
 <circle style="fill:#3f8ce6" cx="16.5" cy="16.5" r="5.5"/>
 <path style="fill:#f4f4f7" d="M 16 12 L 16 13.041016 A 3.5 3.5 0 0 0 13.039062 16 L 12 16 L 12 17 L 13.041016 17 A 3.5 3.5 0 0 0 16 19.960938 L 16 21 L 17 21 L 17 19.958984 A 3.5 3.5 0 0 0 19.960938 17 L 21 17 L 21 16 L 19.958984 16 A 3.5 3.5 0 0 0 17 13.039062 L 17 12 L 16 12 z M 16.5 15 A 1.5 1.5 0 0 1 18 16.5 A 1.5 1.5 0 0 1 16.5 18 A 1.5 1.5 0 0 1 15 16.5 A 1.5 1.5 0 0 1 16.5 15 z"/>
</svg>
